X: 1511
T: Niçin Bülbül Figan Eyler
C: Rifat Bey (Sermüezzin, Miralay)
O: Turkey
F: http://compmusic.upf.edu/node/140
N: hicaz--sarki--kapali_curcuna--nicin_bulbul--rifat_bey
N: makam= hicaz
N: form= sarki
N: usul= kapali_curcuna = 10/8
M: 10/8
L: 1/16
K: C _7/8B ^f ^c 
Q: 1/4=180
%%MIDI tuningsystem comma53
a4 =c'2=b2 a2g2 f2e4f2  | g4 _b2a2 g2=f2 e2d4e2  | \
w:  ARANAĞME  |   | 
=f4 a2g2 f2e2 d2c2 B2A2  | 
w:   | 
A2B2 c2d2 e2f2 g2a6  | a4 =c'2=b2 a2g2 f2e4f2  | \
w:   |  ARANAĞME  | 
g4 _b2a2 g2=f2 e2d4e2  | 
w:   | 
=f4 a2g2 f2e2 d2c2 B2A2  | A2B2 d2c2 B2B2 A2A6  | \
w:   |   | 
z4 G2A4A2 B2d2 c2B2  | 
w:  Ni çin  bül  | 
A6A2 G2c2 d2e4d2  | d4 g2=f2 e2f2 e2d4c2  | \
w:  bül   |  *  fi gan  *  ey  | 
d18z2  | z4 d2e4e8-e2  | 
w:  ler   |  ba har  ey  | 
f2e2 f2g2 a2a2 g2f2 e2d2  | d4 a2a2 g2g2 f2g2 f2e2  | \
w:  yâ  |  *  mı dır  *  şim  | 
e4 =f2e2 d2c2 B2A4z2  | 
w:  di   SAZ  | 
z4 G2A4A2 B2d2 c2B2  | A6A2 G2c2 d2e4d2  | \
w:  Ni çin  bül  |  bül   | 
d4 g2=f2 e2f2 e2d4c2  | 
w:  *  fi gan  *  ey  | 
d18z2  | z4 d2e4e8-e2  | f2e2 f2g2 a2a2 g2f2 e2d2  | \
w:  ler   |  ba har  ey  |  yâ  | 
d4 a2a2 g2g2 f2g2 f2e2  | 
w:  *  mı dır  *  şim  | 
e4 =f2e2 d2c2 d2e2 ^f2g2  | a4 g2a4a2 g2f2 e2f2  | \
w:  di   SAZ  |  *  A çıl mış   | 
g8-g2g2 a2=f2 e2d2  | 
w:  gon  | 
d4 e2=f4f2 g2e4d2  | c2B2 c2d2 e2c2 B2A6  | \
w:  *  ce ler  gül  |  ler   | 
z4 G2A4A2 B2d2 c2B2  | 
w:  me sâr  ey  | 
A6A2 G2c2 d2e4d2  | d4 g2=f2 e2d2 c2B4A2  | \
w:  yâ  |  *  mı dır  *  şim  | 
A4 =f2e2 d2c2 d2e2 ^f2g2  | 
w:  di   SAZ  | 
a4 g2a4a2 g2f2 e2f2  | g8-g2g2 a2=f2 e2d2  | \
w:  *  A çıl mış   |  gon  | 
d4 e2=f4f2 g2e4d2  | 
w:  *  ce ler  gül  | 
c2B2 c2d2 e2c2 B2A6  | z4 G2A4A2 B2d2 c2B2  | \
w:  ler   |  me sâr  ey  | 
A6A2 G2c2 d2e4d2  | 
w:  yâ  | 
d4 g2=f2 e2d2 c2B4A2  | A4 g2f2 e2f2 g2a6  | \
w:  *  mı dır  *  şim  |  di   SAZ  | 
z4 g2a4a8-a2  | a4 g2=f4e4d4=c2  | 
w:  He zâr  â  |  sâ   | 
=c4 e2d2 c2c2 _1/4B2B4A2  | A18z2  | \
w:  *  fi gan  *  et  |  me    | 
z4 d2e4e8-e2  | f2e2 f2g2 a2a2 g2f2 e2d2  | 
w:  gö nül  şev  |  kiy  | 
d4 a2a2 g2g2 f2g2 f2e2  | e4 g2f2 e2f2 g2a6  | \
w:  *  le  han *  dân   |  ol   SAZ  | 
z4 g2a4a8-a2  | 
w:  He zâr  â  | 
a4 g2=f4e4d4=c2  | =c4 e2d2 c2c2 _1/4B2B4A2  | \
w:  sâ   |  *  fi gan  *  et  | 
A18z2  | z4 d2e4e8-e2  | 
w:  me    |  gö nül  şev  | 
f2e2 f2g2 a2a2 g2f2 e2d2  | d4 a2a2 g2g2 f2g2 f2e2  | \
w:  kiy  |  *  le  han *  dân   | 
e4 f2e2 d2c2 d2e2 f2g2  | 
w:  ol   SAZ  | 
a4 g2a4a2 g2f2 e2f2  | g8-g2g2 a2=f2 e2d2  | \
w:  *  A çıl mış   |  gon  | 
d4 e2=f4f2 g2e4d2  | 
w:  *  ce ler  gül  | 
c2B2 c2d2 e2c2 B2A6  | z4 G2A4A2 B2d2 c2B2  | \
w:  ler   |  me sâr  ey  | 
A6A2 G2c2 d2e4d2  | 
w:  yâ  | 
d4 g2=f2 e2d2 c2B4A2  | A4 =f2e2 d2c2 d2e2 ^f2g2  | \
w:  *  mı dır  *  şim  |  di   SAZ  | 
a4 g2a4a2 g2f2 e2f2  | 
w:  *  A çıl mış   | 
g8-g2g2 a2=f2 e2d2  | d4 e2=f4f2 g2e4d2  | \
w:  gon  |  *  ce ler  gül  | 
c2B2 c2d2 e2c2 B2A6  | 
w:  ler   | 
z4 G2A4A2 B2d2 c2B2  | A6A2 G2c2 d2e4d2  | \
w:  me sâr  ey  |  yâ  | 
d4 g2=f2 e2d2 c2B4A2  | 
w:  *  mı dır  *  şim  | 
A4 =f2e2 d2c2 B2A6  | |


